X:1
T:Title
%%score { ( 1 2 ) | ( 3 4 ) }
L:1/8
M:3/4
K:Eb
V:1 treble nm="Grand Piano"
V:2 treble 
V:3 bass 
V:4 bass 
V:1
 z2 z2[Q:1/4=100] z F | G2 G2 [FA]2 | [GB]4 [GB][GB] | [Ge]2 [Ge]2 [Ac]2 | [GB]4 [GB]2 | %5
 [Ge]2 [Ge]2 [Ac]2 | [GB]2 E2 F2 | GB [FA]2 [EG]2 | [DF]4 B>A | G2 G2 [FA]2 | [GB]3 [GB] [GB]2 | %11
 [Ge]2 [Ge]2 [Af]2 | [Ge]4 ed | c2 A2 c2 | [GB]4 GE | [EG]2 [EG]2 [DF]2 | E6 | G2 G2 B2 | F4 A2 | %19
 c2 c2 A2 | B4 [AB]2 | [Ge]2 [Ge]2 [GB]2 | [Fd]4 [CEA][Ec] | [EB]2 [DA]2 D2 |[M:2/4] E4 |] %25
V:2
 z2 z2 E2 | x6 | x6 | x6 | x6 | x6 | x6 | x6 | z2 z2 D2 | x6 | x6 | x6 | x6 | x6 | x6 | x6 | x6 | %17
 x6 | x6 | x6 | x6 | x6 | x6 | x6 |[M:2/4] x4 |] %25
V:3
 z2 z2 G,A, | [E,B,E]2 [E,B,E]2 [E,B,]2 | [E,E]4 [E,E][E,E] | [E,B,]2 [E,B,]2 [E,E]2 | %4
 [E,E]4 [E,E]2 | [E,B,]2 [E,B,]2 [E,E]2 | [E,E]2 [G,B,]2 [B,D]2 | [E,B,E]2 [D,B,]2 [E,B,]2 | %8
 [B,,B,]4 [B,,B,]2 | [E,B,E]2 [E,B,E]2 [E,B,]2 | [E,E]3 [E,E] [E,E]2 | [E,B,]2 [E,B,]2 [B,,B,]2 | %12
 [E,B,]4[K:treble] [G,B,E]2 | [A,E]2 [A,CE]2 [A,EA]2 | [E,E]4 [E,B,E][E,G,] | %15
 [B,,B,]2 [B,,B,]2 [B,,A,]2 | [E,G,]6 | [E,B,E]2 [E,B,E]2 [G,B,E]2 | [B,D]4 [B,D]2 | %19
 [A,E]2 [A,E]2 [A,CE]2 | [G,B,E]4 [F,B,]2 | [E,B,]2 [E,B,]2 [G,B,]2 | [A,B,]4 A,,[A,,A,] | %23
 [B,,G,]2 [B,,B,]2 [B,,A,B,]2 |[M:2/4] [E,G,B,]4 |] %25
V:4
 z2 z2 E,2 | x6 | x6 | x6 | x6 | x6 | x6 | x6 | x6 | x6 | x6 | x6 | x4[K:treble] x2 | x6 | x6 | %15
 x6 | x6 | x6 | x6 | x6 | x6 | x6 | x6 | x6 |[M:2/4] x4 |] %25

